resources/svg/octagon-light.svg

<svg xmlns="http://www.w3.org/2000/svg" viewBox="0 0 256 256" fill="currentColor"><path d="M164.45068,230H91.54919a13.90736,13.90736,0,0,1-9.89965-4.10083L30.10046,174.35034A13.90877,13.90877,0,0,1,26,164.45068V91.54932a13.90877,13.90877,0,0,1,4.10046-9.89966l51.5492-51.54907A13.90764,13.90764,0,0,1,91.54919,26h72.90149a13.90757,13.90757,0,0,1,9.89991,4.10107l51.54882,51.54859A13.90809,13.90809,0,0,1,230,91.54932v72.90136a13.90757,13.90757,0,0,1-4.10107,9.89991l-51.54859,51.54882A13.90809,13.90809,0,0,1,164.45068,230ZM91.54919,38a1.98672,1.98672,0,0,0-1.41406.58569L38.58582,90.135A1.98645,1.98645,0,0,0,38,91.54932v72.90136a1.98645,1.98645,0,0,0,.58582,1.41431L90.135,217.41406A1.9864,1.9864,0,0,0,91.54919,218h72.90149a1.98751,1.98751,0,0,0,1.41407-.58545L217.41406,165.865A1.98691,1.98691,0,0,0,218,164.45068V91.54932a1.98751,1.98751,0,0,0-.58545-1.41407L165.865,38.58594A1.98691,1.98691,0,0,0,164.45068,38Z"/></svg>

<svg xmlns="http://www.w3.org/2000/svg" viewBox="0 0 256 256" fill="currentColor"><path d="M164.5,230h-73a14.3,14.3,0,0,1-9.9-4.1L30.1,174.4a14.3,14.3,0,0,1-4.1-9.9v-73a14.3,14.3,0,0,1,4.1-9.9L81.6,30.1A14.3,14.3,0,0,1,91.5,26h73a14.3,14.3,0,0,1,9.9,4.1l51.5,51.5a14.3,14.3,0,0,1,4.1,9.9v73a14.3,14.3,0,0,1-4.1,9.9l-51.5,51.5A14.3,14.3,0,0,1,164.5,230ZM91.5,38a2,2,0,0,0-1.4.6L38.6,90.1a2,2,0,0,0-.6,1.4v73a2,2,0,0,0,.6,1.4l51.5,51.5a2,2,0,0,0,1.4.6h73a2,2,0,0,0,1.4-.6l51.5-51.5a2,2,0,0,0,.6-1.4v-73a2,2,0,0,0-.6-1.4L165.9,38.6a2,2,0,0,0-1.4-.6Z"/></svg>
